static/img/kroki/8e657792099d14081dcecf4d80ab2525.svg

<?xml version="1.0" encoding="us-ascii" standalone="no"?><svg xmlns="http://www.w3.org/2000/svg" xmlns:xlink="http://www.w3.org/1999/xlink" contentStyleType="text/css" height="838px" preserveAspectRatio="none" style="width:241px;height:838px;" version="1.1" viewBox="0 0 241 838" width="241px" zoomAndPan="magnify"><defs/><g><!--class azure_resource--><g id="elem_azure_resource"><rect codeLine="22" fill="#3D176E" height="39.7891" id="azure_resource" rx="2.5" ry="2.5" style="stroke:#000D19;stroke-width:0.5;" width="168" x="36.5" y="438.75"/><ellipse cx="51.5" cy="458.6445" fill="#ADD1B2" rx="11" ry="11" style="stroke:#181818;stroke-width:1.0;"/><path d="M54.4688,464.2852 Q53.8906,464.582 53.25,464.7227 Q52.6094,464.8789 51.9063,464.8789 Q49.4063,464.8789 48.0781,463.2383 Q46.7656,461.582 46.7656,458.457 Q46.7656,455.332 48.0781,453.6758 Q49.4063,452.0195 51.9063,452.0195 Q52.6094,452.0195 53.25,452.1758 Q53.9063,452.332 54.4688,452.6289 L54.4688,455.3477 Q53.8438,454.7695 53.25,454.5039 Q52.6563,454.2227 52.0313,454.2227 Q50.6875,454.2227 50,455.3008 Q49.3125,456.3633 49.3125,458.457 Q49.3125,460.5508 50,461.6289 Q50.6875,462.6914 52.0313,462.6914 Q52.6563,462.6914 53.25,462.4258 Q53.8438,462.1445 54.4688,461.5664 L54.4688,464.2852 Z " fill="#000000"/><text fill="#D9B8FF" font-family="Helvetica" font-size="17" lengthAdjust="spacing" textLength="126" x="70.5" y="464.5298">azure_resource</text></g><!--class azure_virtual_router--><g id="elem_azure_virtual_router"><rect codeLine="24" fill="#3D176E" height="231.8672" id="azure_virtual_router" rx="2.5" ry="2.5" style="stroke:#000D19;stroke-width:0.5;" width="216" x="12.5" y="599.54"/><ellipse cx="28.85" cy="619.4345" fill="#ADD1B2" rx="11" ry="11" style="stroke:#181818;stroke-width:1.0;"/><path d="M31.8188,625.0752 Q31.2406,625.372 30.6,625.5127 Q29.9594,625.6689 29.2563,625.6689 Q26.7563,625.6689 25.4281,624.0283 Q24.1156,622.372 24.1156,619.247 Q24.1156,616.122 25.4281,614.4658 Q26.7563,612.8095 29.2563,612.8095 Q29.9594,612.8095 30.6,612.9658 Q31.2563,613.122 31.8188,613.4189 L31.8188,616.1377 Q31.1938,615.5595 30.6,615.2939 Q30.0063,615.0127 29.3813,615.0127 Q28.0375,615.0127 27.35,616.0908 Q26.6625,617.1533 26.6625,619.247 Q26.6625,621.3408 27.35,622.4189 Q28.0375,623.4814 29.3813,623.4814 Q30.0063,623.4814 30.6,623.2158 Q31.1938,622.9345 31.8188,622.3564 L31.8188,625.0752 Z " fill="#000000"/><text fill="#D9B8FF" font-family="Helvetica" font-size="17" lengthAdjust="spacing" textLength="171" x="48.15" y="625.3198">azure_virtual_router</text><line style="stroke:#000D19;stroke-width:0.5;" x1="13.5" x2="227.5" y1="639.3291" y2="639.3291"/><text fill="#D9B8FF" font-family="sans-serif" font-size="14" font-weight="bold" lengthAdjust="spacing" textLength="35" x="23.5" y="661.3242">etag</text><text fill="#D9B8FF" font-family="sans-serif" font-size="14" lengthAdjust="spacing" textLength="48" x="58.5" y="661.3242">: string</text><text fill="#D9B8FF" font-family="sans-serif" font-size="14" font-weight="bold" lengthAdjust="spacing" textLength="129" x="23.5" y="687.6211">hosted_gateway</text><text fill="#D9B8FF" font-family="sans-serif" font-size="14" lengthAdjust="spacing" textLength="48" x="152.5" y="687.6211">: string</text><text fill="#D9B8FF" font-family="sans-serif" font-size="14" font-weight="bold" lengthAdjust="spacing" textLength="117" x="23.5" y="713.9179">hosted_subnet</text><text fill="#D9B8FF" font-family="sans-serif" font-size="14" lengthAdjust="spacing" textLength="48" x="140.5" y="713.9179">: string</text><text fill="#D9B8FF" font-family="sans-serif" font-size="14" font-weight="bold" lengthAdjust="spacing" textLength="70" x="23.5" y="740.2148">peerings</text><text fill="#D9B8FF" font-family="sans-serif" font-size="14" lengthAdjust="spacing" textLength="58" x="93.5" y="740.2148">: string[]</text><text fill="#D9B8FF" font-family="sans-serif" font-size="14" font-weight="bold" lengthAdjust="spacing" textLength="144" x="23.5" y="766.5117">provisioning_state</text><text fill="#D9B8FF" font-family="sans-serif" font-size="14" lengthAdjust="spacing" textLength="48" x="167.5" y="766.5117">: string</text><text fill="#D9B8FF" font-family="sans-serif" font-size="14" font-weight="bold" lengthAdjust="spacing" textLength="141" x="23.5" y="792.8086">virtual_router_asn</text><text fill="#D9B8FF" font-family="sans-serif" font-size="14" lengthAdjust="spacing" textLength="44" x="164.5" y="792.8086">: int64</text><text fill="#D9B8FF" font-family="sans-serif" font-size="14" font-weight="bold" lengthAdjust="spacing" textLength="136" x="23.5" y="819.1054">virtual_router_ips</text><text fill="#D9B8FF" font-family="sans-serif" font-size="14" lengthAdjust="spacing" textLength="58" x="159.5" y="819.1054">: string[]</text></g><!--class resource--><g id="elem_resource"><rect codeLine="33" fill="#3D176E" height="310.7578" id="resource" rx="2.5" ry="2.5" style="stroke:#000D19;stroke-width:0.5;" width="227" x="7" y="7"/><ellipse cx="75.75" cy="26.8945" fill="#ADD1B2" rx="11" ry="11" style="stroke:#181818;stroke-width:1.0;"/><path d="M78.7188,32.5352 Q78.1406,32.832 77.5,32.9727 Q76.8594,33.1289 76.1563,33.1289 Q73.6563,33.1289 72.3281,31.4883 Q71.0156,29.832 71.0156,26.707 Q71.0156,23.582 72.3281,21.9258 Q73.6563,20.2695 76.1563,20.2695 Q76.8594,20.2695 77.5,20.4258 Q78.1563,20.582 78.7188,20.8789 L78.7188,23.5977 Q78.0938,23.0195 77.5,22.7539 Q76.9063,22.4727 76.2813,22.4727 Q74.9375,22.4727 74.25,23.5508 Q73.5625,24.6133 73.5625,26.707 Q73.5625,28.8008 74.25,29.8789 Q74.9375,30.9414 76.2813,30.9414 Q76.9063,30.9414 77.5,30.6758 Q78.0938,30.3945 78.7188,29.8164 L78.7188,32.5352 Z " fill="#000000"/><text fill="#D9B8FF" font-family="Helvetica" font-size="17" lengthAdjust="spacing" textLength="71" x="101.25" y="32.7798">resource</text><line style="stroke:#000D19;stroke-width:0.5;" x1="8" x2="233" y1="46.7891" y2="46.7891"/><text fill="#D9B8FF" font-family="sans-serif" font-size="14" font-weight="bold" lengthAdjust="spacing" textLength="29" x="18" y="68.7842">age</text><text fill="#D9B8FF" font-family="sans-serif" font-size="14" lengthAdjust="spacing" textLength="66" x="47" y="68.7842">: duration</text><text fill="#D9B8FF" font-family="sans-serif" font-size="14" font-weight="bold" lengthAdjust="spacing" textLength="43" x="18" y="95.0811">atime</text><text fill="#D9B8FF" font-family="sans-serif" font-size="14" lengthAdjust="spacing" textLength="70" x="61" y="95.0811">: datetime</text><text fill="#D9B8FF" font-family="sans-serif" font-size="14" font-weight="bold" lengthAdjust="spacing" textLength="43" x="18" y="121.3779">ctime</text><text fill="#D9B8FF" font-family="sans-serif" font-size="14" lengthAdjust="spacing" textLength="70" x="61" y="121.3779">: datetime</text><text fill="#D9B8FF" font-family="sans-serif" font-size="14" font-weight="bold" lengthAdjust="spacing" textLength="14" x="18" y="147.6748">id</text><text fill="#D9B8FF" font-family="sans-serif" font-size="14" lengthAdjust="spacing" textLength="48" x="32" y="147.6748">: string</text><text fill="#D9B8FF" font-family="sans-serif" font-size="14" font-weight="bold" lengthAdjust="spacing" textLength="33" x="18" y="173.9717">kind</text><text fill="#D9B8FF" font-family="sans-serif" font-size="14" lengthAdjust="spacing" textLength="48" x="51" y="173.9717">: string</text><text fill="#D9B8FF" font-family="sans-serif" font-size="14" font-weight="bold" lengthAdjust="spacing" textLength="90" x="18" y="200.2686">last_access</text><text fill="#D9B8FF" font-family="sans-serif" font-size="14" lengthAdjust="spacing" textLength="66" x="108" y="200.2686">: duration</text><text fill="#D9B8FF" font-family="sans-serif" font-size="14" font-weight="bold" lengthAdjust="spacing" textLength="90" x="18" y="226.5654">last_update</text><text fill="#D9B8FF" font-family="sans-serif" font-size="14" lengthAdjust="spacing" textLength="66" x="108" y="226.5654">: duration</text><text fill="#D9B8FF" font-family="sans-serif" font-size="14" font-weight="bold" lengthAdjust="spacing" textLength="48" x="18" y="252.8623">mtime</text><text fill="#D9B8FF" font-family="sans-serif" font-size="14" lengthAdjust="spacing" textLength="70" x="66" y="252.8623">: datetime</text><text fill="#D9B8FF" font-family="sans-serif" font-size="14" font-weight="bold" lengthAdjust="spacing" textLength="43" x="18" y="279.1592">name</text><text fill="#D9B8FF" font-family="sans-serif" font-size="14" lengthAdjust="spacing" textLength="48" x="61" y="279.1592">: string</text><text fill="#D9B8FF" font-family="sans-serif" font-size="14" font-weight="bold" lengthAdjust="spacing" textLength="34" x="18" y="305.4561">tags</text><text fill="#D9B8FF" font-family="sans-serif" font-size="14" lengthAdjust="spacing" textLength="171" x="52" y="305.4561">: dictionary[string, string]</text></g><!--reverse link resource to azure_resource--><g id="link_resource_azure_resource"><path codeLine="45" d="M120.5,335.84 C120.5,384.13 120.5,413.36 120.5,438.67 " fill="none" id="resource-backto-azure_resource" style="stroke:#FFAF37;stroke-width:2.0;"/><polygon fill="none" points="120.5,317.84,114.5,335.84,126.5,335.84,120.5,317.84" style="stroke:#FFAF37;stroke-width:2.0;"/></g><!--reverse link azure_resource to azure_virtual_router--><g id="link_azure_resource_azure_virtual_router"><path codeLine="46" d="M120.5,496.8 C120.5,522.73 120.5,553.08 120.5,599.27 " fill="none" id="azure_resource-backto-azure_virtual_router" style="stroke:#FFAF37;stroke-width:2.0;"/><polygon fill="none" points="120.5,478.8,114.5,496.8,126.5,496.8,120.5,478.8" style="stroke:#FFAF37;stroke-width:2.0;"/></g><!--SRC=[XLF1JXin5BpdAonnMpLI0YqXLIyG2T4Bgaflg5gzs6ytLdRjrVFRHA7btx6p2TYx0MxMpFZDpBEyqWe5rWtlH8tr4icDt5gR1WXgSKrajmjRMH9dHG75nQnFtbh3dmhkeKPnXzK6MKleA_wij5mRT4wSHzGDo7L9jZMg6yy4ndaA3KUgHGNENJEJNhQCKHWrNruLHL_P7tfseQQpInp8B2caWsGocQZfl2_vrEh3tg-A1_s4OXelxTuo3c8EBFQg3rC6HHHoKFJ8lvln5oYbJIc-HTZlBXCPf0H_M86osw0ke7AnZMCajBnhS35eXVChLSnEYd- -9vPXSmAUMiASqDcM98f_e-U4s6ZY5ghSt_SJFPrbo51csNTlGJwc1rRMkwcy1COjx4vHhbqQv8Hf4CF9lO6FVmDCTgETjiO3kMC_ChcLnid1cK1hmvTVXwnkqkd7Pb7PB8Doxw1Q0lQs0M5TTvXt3sUFoHEOLaaql_eKy5wSWvJ-E_OSzapRg4ExYAbF-1YeqoNu_NSJjGpNW7QF7VVbe0bLNql- -3yUZtlFFEgzUgn9b_W2]--></g></svg>

<svg xmlns="http://www.w3.org/2000/svg" width="241" height="838" viewBox="0 0 241 838"><rect width="168" height="39.789" x="36.5" y="438.75" fill="#3D176E" rx="2.5" ry="2.5" style="stroke:#000d19;stroke-width:.5"/><circle cx="51.5" cy="458.644" r="11" fill="#ADD1B2" style="stroke:#181818;stroke-width:1"/><path d="M54.469 464.285q-.578.297-1.219.438-.64.156-1.344.156-2.5 0-3.828-1.64-1.312-1.657-1.312-4.782t1.312-4.781q1.328-1.656 3.828-1.656.703 0 1.344.156.656.156 1.219.453v2.719q-.625-.579-1.219-.844-.594-.281-1.219-.281-1.343 0-2.031 1.078-.687 1.062-.687 3.156t.687 3.172q.688 1.062 2.031 1.062.625 0 1.219-.265.594-.281 1.219-.86z"/><text x="70.5" y="464.53" fill="#D9B8FF" font-family="Helvetica" font-size="17" textLength="126">azure_resource</text><rect width="216" height="231.867" x="12.5" y="599.54" fill="#3D176E" rx="2.5" ry="2.5" style="stroke:#000d19;stroke-width:.5"/><circle cx="28.85" cy="619.434" r="11" fill="#ADD1B2" style="stroke:#181818;stroke-width:1"/><path d="M31.819 625.075q-.578.297-1.219.438-.64.156-1.344.156-2.5 0-3.828-1.64-1.312-1.657-1.312-4.782t1.312-4.781q1.328-1.657 3.828-1.657.703 0 1.344.157.656.156 1.219.453v2.719q-.625-.579-1.219-.844-.594-.281-1.219-.281-1.343 0-2.031 1.078-.687 1.062-.687 3.156t.687 3.172q.688 1.062 2.031 1.062.625 0 1.219-.265.594-.282 1.219-.86z"/><text x="48.15" y="625.32" fill="#D9B8FF" font-family="Helvetica" font-size="17" textLength="171">azure_virtual_router</text><path d="M13.5 639.329h214" style="stroke:#000d19;stroke-width:.5"/><text x="23.5" y="661.324" fill="#D9B8FF" font-family="sans-serif" font-size="14" font-weight="bold" textLength="35">etag</text><text x="58.5" y="661.324" fill="#D9B8FF" font-family="sans-serif" font-size="14" textLength="48">: string</text><text x="23.5" y="687.621" fill="#D9B8FF" font-family="sans-serif" font-size="14" font-weight="bold" textLength="129">hosted_gateway</text><text x="152.5" y="687.621" fill="#D9B8FF" font-family="sans-serif" font-size="14" textLength="48">: string</text><text x="23.5" y="713.918" fill="#D9B8FF" font-family="sans-serif" font-size="14" font-weight="bold" textLength="117">hosted_subnet</text><text x="140.5" y="713.918" fill="#D9B8FF" font-family="sans-serif" font-size="14" textLength="48">: string</text><text x="23.5" y="740.215" fill="#D9B8FF" font-family="sans-serif" font-size="14" font-weight="bold" textLength="70">peerings</text><text x="93.5" y="740.215" fill="#D9B8FF" font-family="sans-serif" font-size="14" textLength="58">: string[]</text><text x="23.5" y="766.512" fill="#D9B8FF" font-family="sans-serif" font-size="14" font-weight="bold" textLength="144">provisioning_state</text><text x="167.5" y="766.512" fill="#D9B8FF" font-family="sans-serif" font-size="14" textLength="48">: string</text><text x="23.5" y="792.809" fill="#D9B8FF" font-family="sans-serif" font-size="14" font-weight="bold" textLength="141">virtual_router_asn</text><text x="164.5" y="792.809" fill="#D9B8FF" font-family="sans-serif" font-size="14" textLength="44">: int64</text><text x="23.5" y="819.105" fill="#D9B8FF" font-family="sans-serif" font-size="14" font-weight="bold" textLength="136">virtual_router_ips</text><text x="159.5" y="819.105" fill="#D9B8FF" font-family="sans-serif" font-size="14" textLength="58">: string[]</text><rect width="227" height="310.758" x="7" y="7" fill="#3D176E" rx="2.5" ry="2.5" style="stroke:#000d19;stroke-width:.5"/><circle cx="75.75" cy="26.895" r="11" fill="#ADD1B2" style="stroke:#181818;stroke-width:1"/><path d="M78.719 32.535q-.578.297-1.219.438-.64.156-1.344.156-2.5 0-3.828-1.64-1.312-1.657-1.312-4.782t1.312-4.781q1.328-1.656 3.828-1.656.703 0 1.344.156.656.156 1.219.453v2.719q-.625-.578-1.219-.844-.594-.281-1.219-.281-1.344 0-2.031 1.078-.687 1.062-.687 3.156t.687 3.172q.688 1.062 2.031 1.062.625 0 1.219-.265.594-.281 1.219-.86z"/><text x="101.25" y="32.78" fill="#D9B8FF" font-family="Helvetica" font-size="17" textLength="71">resource</text><path d="M8 46.789h225" style="stroke:#000d19;stroke-width:.5"/><text x="18" y="68.784" fill="#D9B8FF" font-family="sans-serif" font-size="14" font-weight="bold" textLength="29">age</text><text x="47" y="68.784" fill="#D9B8FF" font-family="sans-serif" font-size="14" textLength="66">: duration</text><text x="18" y="95.081" fill="#D9B8FF" font-family="sans-serif" font-size="14" font-weight="bold" textLength="43">atime</text><text x="61" y="95.081" fill="#D9B8FF" font-family="sans-serif" font-size="14" textLength="70">: datetime</text><text x="18" y="121.378" fill="#D9B8FF" font-family="sans-serif" font-size="14" font-weight="bold" textLength="43">ctime</text><text x="61" y="121.378" fill="#D9B8FF" font-family="sans-serif" font-size="14" textLength="70">: datetime</text><text x="18" y="147.675" fill="#D9B8FF" font-family="sans-serif" font-size="14" font-weight="bold" textLength="14">id</text><text x="32" y="147.675" fill="#D9B8FF" font-family="sans-serif" font-size="14" textLength="48">: string</text><text x="18" y="173.972" fill="#D9B8FF" font-family="sans-serif" font-size="14" font-weight="bold" textLength="33">kind</text><text x="51" y="173.972" fill="#D9B8FF" font-family="sans-serif" font-size="14" textLength="48">: string</text><text x="18" y="200.269" fill="#D9B8FF" font-family="sans-serif" font-size="14" font-weight="bold" textLength="90">last_access</text><text x="108" y="200.269" fill="#D9B8FF" font-family="sans-serif" font-size="14" textLength="66">: duration</text><text x="18" y="226.565" fill="#D9B8FF" font-family="sans-serif" font-size="14" font-weight="bold" textLength="90">last_update</text><text x="108" y="226.565" fill="#D9B8FF" font-family="sans-serif" font-size="14" textLength="66">: duration</text><text x="18" y="252.862" fill="#D9B8FF" font-family="sans-serif" font-size="14" font-weight="bold" textLength="48">mtime</text><text x="66" y="252.862" fill="#D9B8FF" font-family="sans-serif" font-size="14" textLength="70">: datetime</text><text x="18" y="279.159" fill="#D9B8FF" font-family="sans-serif" font-size="14" font-weight="bold" textLength="43">name</text><text x="61" y="279.159" fill="#D9B8FF" font-family="sans-serif" font-size="14" textLength="48">: string</text><text x="18" y="305.456" fill="#D9B8FF" font-family="sans-serif" font-size="14" font-weight="bold" textLength="34">tags</text><text x="52" y="305.456" fill="#D9B8FF" font-family="sans-serif" font-size="14" textLength="171">: dictionary[string, string]</text><path fill="none" d="M120.5 335.84v102.83m0-120.83-6 18h12zm0 178.96v102.47m0-120.47-6 18h12z" style="stroke:#ffaf37;stroke-width:2"/></svg>
